X:4889
T:Over the Hills
O:england
M:2/2
L:1/8
R:March
K:D
A2|d2fe defe|d2B2 B2A2|d2fe defe|g2e2 e2A2|d2fe defe|d2B2 g4|B2AF A2f2|
g2e2 e2fg||a3g f2e2|d2B2 B2fg|a3g f2ed|g2e2 e2fg|a3g f2e2|d2B2 g4|B2AF A
2f2|
g2e2 e2:||


